X:95
T:Fisher's Hornpipe
R: reel
M: 4/4
L: 1/8
K: D
(3ABc | dAFD GBAG | FDFD GBAG | FDFD GBAG | FDFD E2 (3ABc |
dAFD GBAG | FDFD GBAG | FGAB cdec | d2 dc d2 :|
|: cd | ecAc efge | fdAd fgaf | ecAc efgf | edcB A2 A2 |
BGDG BdcB | AFDF A2 GA |  BdcB  AGFE | D2 d2 D2 :|

